img/phone.svg

<svg width="19" height="19" viewBox="0 0 19 19" fill="none" xmlns="http://www.w3.org/2000/svg">
<path d="M14.4455 12.5686C13.8247 11.9557 13.0498 11.9557 12.4329 12.5686C11.9624 13.0351 11.4919 13.5017 11.0293 13.9762C10.9028 14.1067 10.796 14.1343 10.6418 14.0473C10.3374 13.8813 10.0132 13.7468 9.72058 13.565C8.35648 12.707 7.21381 11.6038 6.20161 10.3623C5.69947 9.74551 5.25268 9.08521 4.94032 8.34187C4.87706 8.19163 4.88892 8.09278 5.01149 7.97021C5.482 7.51551 5.94065 7.04895 6.40326 6.58239C7.04774 5.93395 7.04774 5.17481 6.39931 4.52241C6.03159 4.15075 5.66388 3.78699 5.29617 3.41532C4.9166 3.03575 4.54098 2.65222 4.15745 2.2766C3.53669 1.67166 2.76172 1.67166 2.14492 2.28056C1.67045 2.74712 1.21575 3.22554 0.733378 3.68419C0.286589 4.10725 0.0612166 4.62521 0.0137699 5.23016C-0.061354 6.21468 0.179833 7.14385 0.519868 8.04929C1.21575 9.92343 2.2754 11.588 3.56041 13.1142C5.29617 15.1782 7.36801 16.8111 9.79174 17.9894C10.883 18.5192 12.0138 18.9264 13.2435 18.9937C14.0896 19.0411 14.825 18.8276 15.4142 18.1673C15.8175 17.7166 16.2722 17.3053 16.6992 16.8744C17.3318 16.2338 17.3358 15.4589 16.7071 14.8263C15.9559 14.0711 15.2007 13.3198 14.4455 12.5686Z" fill="white"/>
<path d="M13.6905 9.41851L15.1495 9.16942C14.9202 7.82905 14.2876 6.6152 13.3268 5.65045C12.3106 4.6343 11.0256 3.99377 9.6101 3.79608L9.4045 5.26297C10.4997 5.41717 11.4961 5.91141 12.2829 6.69824C13.0263 7.44157 13.5126 8.38259 13.6905 9.41851Z" fill="white"/>
<path d="M15.9718 3.07613C14.2875 1.39177 12.1563 0.328173 9.80374 0L9.59814 1.46689C11.6304 1.75157 13.473 2.67283 14.928 4.12391C16.3079 5.50382 17.2133 7.24748 17.5415 9.16512L19.0005 8.91603C18.617 6.69394 17.5692 4.67745 15.9718 3.07613Z" fill="white"/>
</svg>

<svg width="19" height="19" fill="none" xmlns="http://www.w3.org/2000/svg"><path d="M14.445 12.569c-.62-.613-1.395-.613-2.012 0-.47.466-.941.933-1.404 1.407-.126.13-.233.158-.387.071-.305-.166-.629-.3-.921-.482-1.365-.858-2.507-1.961-3.52-3.203-.502-.616-.948-1.277-1.26-2.02-.064-.15-.052-.25.07-.372.471-.454.93-.921 1.392-1.388.645-.648.645-1.407-.004-2.06-.367-.371-.735-.735-1.103-1.107-.38-.38-.755-.763-1.139-1.138-.62-.605-1.395-.605-2.012.004-.475.466-.93.945-1.412 1.403-.446.423-.672.941-.72 1.546-.074.985.167 1.914.507 2.82.696 1.873 1.755 3.538 3.04 5.064a18.816 18.816 0 006.232 4.875c1.091.53 2.222.937 3.451 1.005.847.047 1.582-.166 2.171-.827.404-.45.858-.862 1.285-1.293.633-.64.637-1.415.008-2.048a601.752 601.752 0 00-2.262-2.257zm-.755-3.15l1.46-.25a6.52 6.52 0 00-1.823-3.519A6.486 6.486 0 009.61 3.796l-.205 1.467a5.032 5.032 0 012.878 1.435 5.03 5.03 0 011.408 2.72zm2.282-6.343A10.758 10.758 0 009.804 0l-.206 1.467a9.328 9.328 0 015.33 2.657 9.32 9.32 0 012.613 5.041l1.46-.249a10.836 10.836 0 00-3.03-5.84z" fill="#fff"/></svg>
